X:1
T:Title
%%score 1 { 2 | 3 }
L:1/8
Q:1/4=88
M:3/4
K:F
V:1 treble nm="Grand Piano, Soprano"
V:2 bass nm="Choir Pad, The Shepherd�s Fold"
V:3 bass 
V:1
 AA B c3 | A/A/F G A3 | AB A G3 | B/B/A _A =A3 | FF G A3 | c/c/B A d3 | dc FB A/A/A- | A2 G F3 | %8
w: By~I.~T.~Davis * * *||||||||
 [Fc][Fc] [FA] [Fc]3 | [FA]/[FA]/F [FB] [FA]3 | [FA][FG] [^FA] [GB]3 | G/G/[FA] [F=B] [Ec]3 | %12
w: ||||
 [Fc][FA] [FB][Fc] [Fc]2 | [FA][EG] F [Fd]3 | [Ff][Fe] [Fd][Fc] F/[FB]/[FA]- | [FA]2 [DG] F3- | %16
w: ||||
 F4 z2 |] %17
w: |
V:2
 F,F, G, A,3 | C/C/A, B,[K:treble] C3 | CD C B,3 | D/D/C[K:bass] =B, C3 | A,A, B, C3 | %5
 A,/A,/G, F, B,3 | B,A, A,[K:treble]D C/C/C- | C2[K:bass] B, A,3 | A,A, C A,3 | C/C/A, D C3 | %10
 CD D D3 | E/E/C[K:bass] G, G,3 | A,C G,A, A,2 | CB, A, B,3 | _A,A, A,=A, A,/[K:treble]D/C- | %15
 C2 B, A,3- | A,4 z2 |] %17
V:3
 z2 z [F,,F,]3 | z F,2 [F,,F,]3 | z E, F, [C,,C,]3 | z F,2 [F,,F,]3 | z2 z [F,,F,]3 | %5
 A,, B,,2 B,,3 | z F, _E,[B,,D,F,] z C,- | C,2 C, [F,,F,]3 | F,F, F, F,3 | F,/F,/F, E, F,3 | %10
 A,B, A, G,3 | E,/E,/F, D, C,3 | F,F, F,F, F,2 | F,C, D, B,,3 | =B,,B,, B,,C, C,/C,/C,- | %15
 C,2 C, F,3- | F,4 z2 |] %17

